packages/swarm-icons/src/icons/line/Eye Hidden.svg

<svg xmlns="http://www.w3.org/2000/svg" width="24" height="24" viewBox="0 0 24 24">
  <path fill="#757575" d="M16.2581834,7.44892338 L16.0874869,7.6196199 C16.0907506,7.62424288 16.0940066,7.62887164 16.097255,7.63350616 L15.376418,8.35434318 C15.3733515,8.34952784 15.3702751,8.34471949 15.3671886,8.33991819 L9.8399182,13.8671886 C9.84471949,13.8702751 9.84952784,13.8733515 9.85434318,13.876418 L9.13350616,14.597255 C9.12887164,14.5940066 9.12424288,14.5907506 9.11961991,14.5874869 L7.34787273,16.3592341 C7.35309286,16.3619027 7.35831364,16.3645668 7.36353513,16.3672261 L6.62305096,17.1077102 C6.61794227,17.1049375 6.61283432,17.1021607 6.6077271,17.0993797 L3.35355339,20.3535534 C3.15829124,20.5488155 2.84170876,20.5488155 2.64644661,20.3535534 C2.45118446,20.1582912 2.45118446,19.8417088 2.64644661,19.6464466 L5.72206158,16.5708316 C4.06858961,15.4961912 2.49456908,13.9725807 1,12 C4.28324517,7.66666667 7.94991183,5.5 12,5.5 C13.3881463,5.5 14.7312505,5.75452685 16.0293127,6.26358054 L19.6464466,2.64644661 C19.8417088,2.45118446 20.1582912,2.45118446 20.3535534,2.64644661 C20.5488155,2.84170876 20.5488155,3.15829124 20.3535534,3.35355339 L17.0074829,6.69962384 C17.0127359,6.70225217 17.0179881,6.70488478 17.0232395,6.7075217 L16.2743422,7.45641898 C16.2689567,7.4539155 16.2635704,7.45141697 16.2581834,7.44892338 Z M14.7229893,7.56990396 C14.0089427,6.90602662 13.0518876,6.5 12,6.5 C9.790861,6.5 8,8.290861 8,10.5 C8,11.5518876 8.40602662,12.5089427 9.06990396,13.2229893 L14.7229893,7.56990396 Z M8.36242009,13.9304731 C7.5177544,13.0351388 7,11.8280334 7,10.5 C7,9.25878523 7.45227195,8.12320423 8.20100766,7.24906519 C6.11736939,8.09880818 4.14262834,9.67556758 2.2688623,12 C3.60865697,13.6620336 5.0000766,14.9418085 6.44601728,15.8468759 L8.36242009,13.9304731 Z M17.4689,8.10033879 L18.194119,7.37511979 C19.8782364,8.45248761 21.4801967,9.99411435 23,12 C19.7167548,16.3333333 16.0500882,18.5 12,18.5 C10.5766559,18.5 9.20066687,18.2324019 7.87203305,17.6972058 L8.64781763,16.9214212 C9.73545918,17.3080981 10.852486,17.5 12,17.5 C15.5199784,17.5 18.7530893,15.6943098 21.7311377,12 C20.3650835,10.3053911 18.9453609,9.00817206 17.4689,8.10033879 Z M10.3484373,15.2208016 L11.1580123,14.4112265 C11.4294795,14.4693862 11.7111646,14.5 12,14.5 C14.209139,14.5 16,12.709139 16,10.5 C16,10.2111646 15.9693862,9.92947948 15.9112265,9.65801231 L16.7208016,8.84843726 C16.9016688,9.36546147 17,9.92124749 17,10.5 C17,13.2614237 14.7614237,15.5 12,15.5 C11.4212475,15.5 10.8654615,15.4016688 10.3484373,15.2208016 Z"/>
</svg>

<svg xmlns="http://www.w3.org/2000/svg" width="24" height="24"><path fill="#757575" d="M16.258 7.449l-.17.17.01.015-.722.72a4.004 4.004 0 00-.009-.014L9.84 13.867l.014.01-.72.72a5.015 5.015 0 01-.014-.01L7.348 16.36l.016.008-.74.74-.016-.008-3.254 3.255a.5.5 0 01-.708-.708l3.076-3.075C4.07 15.496 2.495 13.973 1 12c3.283-4.333 6.95-6.5 11-6.5 1.388 0 2.731.255 4.03.764l3.616-3.618a.5.5 0 01.708.708L17.007 6.7l.016.008-.749.748-.016-.007zm-1.535.12a4 4 0 00-5.653 5.653l5.653-5.652zm-6.36 6.361A4.983 4.983 0 017 10.5a4.98 4.98 0 011.201-3.25C6.117 8.098 4.143 9.675 2.269 12c1.34 1.662 2.731 2.942 4.177 3.847l1.916-1.917zm9.106-5.83l.725-.725C19.878 8.452 21.48 9.995 23 12c-3.283 4.333-6.95 6.5-11 6.5-1.423 0-2.8-.268-4.128-.803l.776-.776A9.933 9.933 0 0012 17.5c3.52 0 6.753-1.806 9.731-5.5-1.366-1.695-2.786-2.992-4.262-3.9zm-7.12 7.12l.809-.809a4 4 0 004.753-4.753l.81-.81a5 5 0 01-6.372 6.372z"/></svg>
